frontend/public/svg/interface/copy.svg

<svg width="151" height="173" viewBox="0 0 151 173" fill="none" xmlns="http://www.w3.org/2000/svg">
<g clip-path="url(#clip0)">
<path d="M30.9231 153.398C25.9082 153.062 21.2595 152.78 16.6153 152.431C13.3686 152.186 10.2997 151.464 7.57825 149.459C3.00684 146.09 1.56856 141.264 1.45752 136.007C1.29453 128.332 1.3601 120.646 1.56139 112.971C1.76659 105.186 2.08738 97.3959 2.65361 89.6298C3.85945 73.0868 4.37958 56.5257 4.83867 39.947C5.16774 31.9356 6.64051 24.0128 9.21208 16.4196C11.3588 9.78579 15.6757 5.67804 22.6329 4.53533C24.2764 4.26477 25.9218 3.95521 27.579 3.81993C50.8387 1.97287 74.0726 -0.472549 97.4629 0.405459C102.453 0.593417 107.451 0.999201 112.406 1.62356C118.56 2.39881 121.757 5.86334 121.976 12.0576C122.154 17.1357 121.886 22.2301 121.81 27.7778C122.815 27.7778 124.008 27.6887 125.186 27.7947C128.943 28.1322 132.725 28.3527 136.439 28.9654C142.402 29.9513 146.049 33.544 147.63 39.4325C148.915 44.4993 149.683 49.6836 149.923 54.9056C150.962 71.9558 149.786 88.9202 148.223 105.895C147.611 112.529 147.573 119.228 147.435 125.902C147.297 132.576 147.5 139.263 147.258 145.933C147.13 149.71 146.673 153.467 145.891 157.163C144.143 165.312 138.661 170.196 130.151 171.171C124.199 171.921 118.213 172.362 112.215 172.494C94.7719 172.676 77.3226 172.758 59.8815 172.485C54.1516 172.396 48.3809 171.399 42.7387 170.278C36.1316 168.965 32.0471 163.932 31.3101 157.17C31.1769 155.969 31.0621 154.766 30.9231 153.398ZM42.1303 105.059H41.7043C41.4796 112.397 41.2545 119.735 41.029 127.073C40.7536 135.633 40.44 144.191 40.1932 152.752C40.1523 154.189 40.3926 155.633 40.4588 157.076C40.5887 159.93 42.1549 161.708 44.8231 162.227C49.3899 163.117 53.9848 164.166 58.6069 164.406C68.2512 164.906 77.9245 165.201 87.5784 165.067C99.5655 164.9 111.549 164.269 123.526 163.708C126.073 163.54 128.597 163.116 131.059 162.443C134.088 161.671 136.161 159.649 136.683 156.506C137.389 152.801 137.843 149.051 138.043 145.284C138.262 137.614 138.034 129.932 138.177 122.261C138.285 116.482 138.437 110.684 139.001 104.936C140.466 89.9771 141.451 75.0022 140.733 59.9668C140.468 54.4224 140.112 48.8753 138.642 43.4636C137.98 41.0305 136.759 39.5275 134.086 39.4781C127.658 39.359 121.224 38.9747 114.801 39.0996C103.697 39.3149 92.6057 39.8527 81.5077 40.2214C73.6252 40.4816 65.7382 40.6117 57.8595 40.9538C54.3244 41.1072 50.7127 41.2972 47.4906 43.0057C46.3829 43.591 44.8608 44.551 44.69 45.5422C44.2323 48.6629 43.4542 51.7279 42.3679 54.6885C42.1903 55.4482 42.1426 56.2326 42.227 57.0083C42.1861 59.5663 42.1374 62.1248 42.1355 64.6827C42.1259 78.1396 42.1242 91.5985 42.1303 105.059ZM30.7977 143.928C30.923 141.672 31.0432 139.9 31.1166 138.126C31.4936 129.01 31.8649 119.894 32.2303 110.777C32.8101 96.6584 33.3426 82.5381 33.9984 68.4236C34.4114 59.539 34.6984 50.6261 36.6036 41.8935C36.9547 40.4047 37.6251 39.0103 38.5686 37.8072C41.2356 34.4555 45.0749 32.2443 49.3088 31.6215C54.8914 30.6969 60.5238 30.1038 66.1765 29.8454C80.6044 29.169 95.044 28.7541 109.478 28.2195C110.341 28.1876 111.198 28.0243 112.384 27.8851C112.736 22.5832 112.797 17.4317 111.688 11.8788C106.128 11.5341 100.604 11.0605 95.0706 10.8706C73.5895 10.1324 52.229 12.3483 30.8335 13.6744C28.2958 13.8311 25.788 14.4314 23.2555 14.7325C20.3237 15.0818 18.7822 16.8625 17.9277 19.5213C15.7651 26.07 14.4364 32.8659 13.9731 39.748C13.0069 55.9592 12.0153 72.1737 11.4237 88.4019C10.8802 103.295 10.8166 118.213 10.6257 133.121C10.656 135.122 10.8955 137.114 11.34 139.066C11.8549 141.637 13.2809 142.885 15.9147 143.141C19.34 143.474 22.7764 143.702 26.2114 143.913C27.6257 144.003 29.0516 143.928 30.7977 143.928Z" fill="black"/>
</g>
<defs>
<clipPath id="clip0">
<rect width="150" height="173" fill="white" transform="translate(0.777344)"/>
</clipPath>
</defs>
</svg>

<svg xmlns="http://www.w3.org/2000/svg" width="151" height="173" fill="none" viewBox="0 0 151 173"><g clip-path="url(#a)"><path fill="#000" d="M30.923 153.398c-5.015-.336-9.663-.618-14.308-.967-3.246-.245-6.315-.967-9.037-2.972-4.571-3.369-6.01-8.195-6.12-13.452-.163-7.675-.098-15.361.103-23.036.206-7.785.526-15.575 1.093-23.341C3.859 73.087 4.38 56.526 4.839 39.947A84.1 84.1 0 0 1 9.212 16.42c2.147-6.634 6.464-10.742 13.42-11.885 1.644-.27 3.29-.58 4.947-.715C50.839 1.973 74.073-.473 97.463.405c4.99.188 9.988.594 14.943 1.219 6.154.775 9.351 4.24 9.57 10.434.178 5.078-.09 10.172-.166 15.72 1.005 0 2.198-.09 3.376.017 3.757.337 7.539.558 11.253 1.17 5.963.986 9.61 4.579 11.191 10.467a77.4 77.4 0 0 1 2.293 15.474c1.039 17.05-.137 34.014-1.7 50.989-.612 6.634-.65 13.333-.788 20.007s.065 13.361-.177 20.031a65 65 0 0 1-1.367 11.23c-1.748 8.149-7.23 13.033-15.74 14.008a174 174 0 0 1-17.936 1.323c-17.443.182-34.892.264-52.333-.009-5.73-.089-11.501-1.086-17.143-2.207-6.607-1.313-10.692-6.346-11.429-13.108-.133-1.201-.248-2.404-.387-3.772m11.207-48.339h-.426l-.675 22.014c-.275 8.56-.589 17.118-.836 25.679-.04 1.437.2 2.881.266 4.324.13 2.854 1.696 4.632 4.364 5.151 4.567.89 9.162 1.939 13.784 2.179 9.644.5 19.317.795 28.971.661 11.987-.167 23.971-.798 35.948-1.359a38 38 0 0 0 7.533-1.265c3.029-.772 5.102-2.794 5.624-5.937a84 84 0 0 0 1.36-11.222c.219-7.67-.009-15.352.134-23.023.108-5.779.26-11.577.824-17.325 1.465-14.959 2.45-29.934 1.732-44.97-.265-5.544-.621-11.09-2.091-16.502-.662-2.433-1.883-3.936-4.556-3.986-6.428-.119-12.862-.503-19.285-.378-11.104.215-22.195.753-33.293 1.121-7.883.26-15.77.39-23.648.733-3.536.153-7.147.343-10.37 2.052-1.107.585-2.63 1.545-2.8 2.536a46 46 0 0 1-2.322 9.146 6.9 6.9 0 0 0-.141 2.32c-.04 2.558-.09 5.117-.091 7.675q-.015 20.185-.006 40.376m-11.332 38.869c.125-2.256.245-4.028.319-5.802q.566-13.674 1.113-27.349c.58-14.119 1.113-28.239 1.768-42.353.413-8.885.7-17.798 2.606-26.53a10.5 10.5 0 0 1 1.965-4.087 16.86 16.86 0 0 1 10.74-6.186 143 143 0 0 1 16.868-1.776c14.427-.676 28.867-1.09 43.301-1.625.863-.032 1.72-.196 2.906-.335.352-5.302.413-10.453-.696-16.006-5.56-.345-11.084-.819-16.617-1.008-21.481-.739-42.842 1.477-64.237 2.803-2.538.157-5.046.757-7.578 1.059-2.932.349-4.474 2.13-5.328 4.788a82 82 0 0 0-3.955 20.227c-.966 16.211-1.958 32.426-2.55 48.654-.543 14.893-.606 29.811-.797 44.719.03 2.001.27 3.993.714 5.945.515 2.571 1.94 3.819 4.575 4.075 3.425.333 6.861.561 10.296.772 1.415.09 2.84.015 4.587.015"/></g><defs><clipPath id="a"><path fill="#fff" d="M.777 0h150v173h-150z"/></clipPath></defs></svg>
